img/service-contacts__03.svg

<svg width="25" height="25" viewBox="0 0 25 25" fill="none" xmlns="http://www.w3.org/2000/svg">
<path d="M18.2913 24.0234H18.2852C18.0155 24.0234 17.7969 24.2421 17.7969 24.5117C17.7969 24.7813 18.0155 25 18.2852 25H18.2913C18.5609 25 18.7795 24.7813 18.7795 24.5117C18.7795 24.2421 18.5609 24.0234 18.2913 24.0234Z" fill="black"/>
<path d="M24.8558 8.24521L21.3867 4.80063V1.95312C21.3867 0.876172 20.5105 0 19.4336 0H5.56641C4.48945 0 3.61328 0.876172 3.61328 1.95312V4.77617L0.143018 8.24639C0.0514648 8.33804 0 8.46221 0 8.5917V21.1182C0 23.2586 1.74141 25 3.88184 25H16.11C16.3796 25 16.5982 24.7813 16.5982 24.5117C16.5982 24.2421 16.3796 24.0234 16.11 24.0234H3.88184C3.3102 24.0234 2.7771 23.8568 2.3272 23.5706L3.24258 22.6552H10.7421C11.0117 22.6552 11.2304 22.4366 11.2304 22.1669C11.2304 21.8973 11.0117 21.6787 10.7421 21.6787H4.21909L10.0436 15.8541C11.3981 14.4997 13.602 14.4997 14.9563 15.8541L22.6728 23.5706C22.2229 23.8568 21.6898 24.0234 21.1182 24.0234H20.459C20.1894 24.0234 19.9707 24.2421 19.9707 24.5117C19.9707 24.7813 20.1894 25 20.459 25H21.1182C22.1127 25 23.0208 24.6237 23.7084 24.0064C23.7252 23.9935 23.7417 23.9798 23.7571 23.9644C23.7635 23.9579 23.7692 23.951 23.7753 23.9442C24.5284 23.2357 25 22.2313 25 21.1182V8.5917C25 8.46162 24.9481 8.33687 24.8558 8.24521ZM21.3867 6.17686L23.82 8.59292L21.3867 11.0262V6.17686ZM3.61328 6.15728V11.0262L1.17886 8.5917L3.61328 6.15728ZM1.60151 22.9151C1.21069 22.4203 0.976562 21.7962 0.976562 21.1182V9.77056L7.86133 16.6554L1.60151 22.9151ZM15.6469 15.1636C13.9117 13.4285 11.0883 13.4285 9.35308 15.1636L8.5519 15.9648L4.58984 12.0027V1.95312C4.58984 1.41465 5.02793 0.976562 5.56641 0.976562H19.4336C19.9721 0.976562 20.4102 1.41465 20.4102 1.95312V12.0027L16.4481 15.9648L15.6469 15.1636ZM24.0234 21.1182C24.0234 21.7962 23.7893 22.4203 23.3984 22.9152L17.1387 16.6554L24.0234 9.77056V21.1182Z" fill="black"/>
<path d="M17.1163 11.5234H7.89062C7.621 11.5234 7.40234 11.7421 7.40234 12.0117C7.40234 12.2813 7.621 12.5 7.89062 12.5H17.1162C17.3859 12.5 17.6046 12.2813 17.6046 12.0117C17.6046 11.7421 17.3859 11.5234 17.1163 11.5234Z" fill="black"/>
<path d="M17.1163 8.00781H7.89063C7.621 8.00781 7.40234 8.22646 7.40234 8.49609C7.40234 8.76572 7.621 8.98438 7.89063 8.98438H17.1163C17.3859 8.98438 17.6046 8.76572 17.6046 8.49609C17.6046 8.22646 17.3859 8.00781 17.1163 8.00781Z" fill="black"/>
<path d="M15.4033 4.63525C15.312 4.54443 15.186 4.49219 15.0576 4.49219C14.9292 4.49219 14.8032 4.54438 14.7124 4.63525C14.6216 4.72612 14.5693 4.85205 14.5693 4.98047C14.5693 5.10889 14.6215 5.23486 14.7124 5.32563C14.8037 5.4165 14.9292 5.46875 15.0576 5.46875C15.186 5.46875 15.312 5.4165 15.4033 5.32563C15.4941 5.23486 15.5459 5.10889 15.5459 4.98047C15.5459 4.85205 15.4941 4.72607 15.4033 4.63525Z" fill="black"/>
<path d="M12.7964 4.49219H7.89062C7.621 4.49219 7.40234 4.71084 7.40234 4.98047C7.40234 5.2501 7.621 5.46875 7.89062 5.46875H12.7964C13.066 5.46875 13.2847 5.2501 13.2847 4.98047C13.2847 4.71084 13.066 4.49219 12.7964 4.49219Z" fill="black"/>
</svg>

<svg width="25" height="25" fill="none" xmlns="http://www.w3.org/2000/svg"><path d="M18.291 24.023h-.006a.488.488 0 000 .977h.006a.488.488 0 000-.977z" fill="#000"/><path d="M24.856 8.245l-3.47-3.444V1.953A1.955 1.955 0 0019.435 0H5.566a1.955 1.955 0 00-1.953 1.953v2.823l-3.47 3.47A.489.489 0 000 8.592v12.526A3.886 3.886 0 003.882 25H16.11a.488.488 0 000-.977H3.882a2.887 2.887 0 01-1.555-.452l.916-.916h7.5a.488.488 0 000-.976H4.218l5.825-5.825a3.478 3.478 0 014.912 0l7.717 7.717c-.45.286-.983.452-1.555.452h-.659a.488.488 0 000 .977h.66a3.866 3.866 0 002.638-1.036l.018-.02A3.87 3.87 0 0025 21.118V8.592a.488.488 0 00-.144-.347zm-3.47-2.068l2.434 2.416-2.433 2.433v-4.85zm-17.773-.02v4.87L1.18 8.591l2.434-2.435zM1.602 22.915a2.89 2.89 0 01-.625-1.797V9.771l6.884 6.884-6.26 6.26zm14.045-7.751a4.456 4.456 0 00-6.294 0l-.801.8-3.962-3.961V1.953c0-.538.438-.976.976-.976h13.868c.538 0 .976.438.976.976v10.05l-3.962 3.962-.801-.801zm8.376 5.954a2.89 2.89 0 01-.625 1.797l-6.26-6.26 6.885-6.884v11.347z" fill="#000"/><path d="M17.116 11.523H7.891a.488.488 0 000 .977h9.225a.488.488 0 000-.977zm0-3.515H7.891a.488.488 0 000 .976h9.225a.488.488 0 000-.976zm-1.713-3.373a.492.492 0 00-.834.345.491.491 0 00.489.489.491.491 0 00.346-.833zm-2.607-.143H7.891a.488.488 0 000 .977h4.905a.488.488 0 000-.977z" fill="#000"/></svg>
